X:1
T:Sing Praise to the Lord
T:Text: Henry W. Baker, 1875, alt.; based on Psalm 148 and 150 Tune: C. Hubert H. Parry, 1894
T:10 10 11 11 LAUDATE DOMINUM www.hymnary.org/text/sing_praise_to_the_lord_praise_him_in
T:Sing Praise to the Lord
T:This hymn is in the public domain. You may freely use this score for personal and congregational worship. If you reproduce the score, please credit Hymnary.org as the source. 
T:This hymn is in the public domain. You may freely use this score for personal and congregational worship. If you reproduce the score, please credit Hymnary.org as the source. 
Z:This hymn is in the public domain. You may freely use this score for personal and congregational worship. If you reproduce the score, please credit Hymnary.org as the source.
%%score ( 1 2 ) ( 3 4 )
L:1/8
M:3/4
K:Bb
V:1 treble nm="SOPRANO ALTO" snm="S. A."
V:2 treble 
V:3 bass nm="TENOR BASS" snm="T. B."
V:4 bass 
V:1
"^1""^2""^3""^4" F2 | d2 B2 c2 | F4 B2 | G2 F2 E2 | D4 | F2 | d2 c2 F2 | B4 A2 | c2 B2 G2 | F4 | %10
w: Sing|praise to the|Lord! Praise|him in the|height;|re-|joice in his|word, you|an- gels of|light.|
w: Sing|praise to the|Lord! Praise|him on the|earth|in|tune- ful ac-|cord, you|saints of new|birth.|
w: Sing|praise to the|Lord! All|things that give|sound,|each|ju- bi- lant|chord, re-|ech- o a-|round.|
w: Sing|praise to the|Lord! Thanks-|giv- ing and|song|to|him be out-|poured all|a- ges a-|long!|
 F2 | B2 B2 B2 | B2 =AG AB | c2 B2 c2 | F4 |1 A2 | d2 d2 d2 | BA G2 e2 | d2 B2 c2 | B4 x2 |] %20
w: You|heav- ens, a-|dore him * by *|whom you were|made,|and|wor- ship be-|fore * him, in|bright- ness ar-|rayed.|
w: Praise|him who has|brought you * his *|grace from a-|bove;|praise|him who has|taught _ you to|sing of his|love.|
w: Loud|or- gans, his|glo- ry * tell *|forth in deep|tone,|and|trum- pets, the|sto- * ry of|what he has|done.|
w: For|love in cre-|a- tion, * for *|heav- en re-|stored,|for|grace of sal-|va- * tion, sing|praise to the|Lord!|
V:2
 F2 | F2 F2 G2 | F4 F2 | B,2 D2 C2 | B,4 | F2 | B2 A2 F2 | (F2 G2) F2 | ^F2 G2 =E2 | F4 | C2 | %11
 B,2 E2 F2 | G2 E2 F2 | G2 F2 G2 | F4 |1 F2 | ^F2 G2 A2 | G2 G2 G2 | F3 G A2 | B4 x2 |] %20
V:3
 F,2 | B,2 D2 CB, | A,4 F,2 | G,2 G,2 A,2 | B,4 | D2 | =E2 F2 C2 | (D2 C2) C2 | _E2 D2 B,2 | A,4 | %10
 A,2 | B,2 B,2 _A,2 | G,2 B,2 B,2 | E2 D2 CB, | A,4 |1 C2 | C2 B,2 A,2 | DC B,2 B,2 | B,2 D2 E2 | %19
 D4 x2 |] %20
V:4
 F,2 | B,2 F,2 E,2 | F,4 D,2 | E,2 C,2 F,2 | B,,4 | B,2 | G,2 A,2 A,,2 | (D,2 =E,2) F,2 | %8
 A,,2 B,,2 C,2 | F,4 | E,2 | D,2 C,2 D,2 | E,2 E,2 D,2 | C,2 D,2 E,2 | F,4 |1 E,2 | D,2 =E,2 ^F,2 | %17
 G,2 G,2 C,2 | F,2 F,2 F,2 | B,,4 x2 |] %20

